X: 261
M: 2/4
L: 1/16
K: G
|:\
d2ef g4 | B2dB G4 |\
d2ef g4 | f2fg a4 |\
f2ed e2d^c | d2e^c d4 |\
d2ef g4 | f2fg a4 |
f2ed e2d^c | d2e^c d4 ::\
g3gf3f | e3ed3d |\
c3c B4 | GABc d4 |\
g4 BGc2 | A2AF G4 :|

